public/avatar/body/158.svg

<svg xmlns:xlink="http://www.w3.org/1999/xlink" height="82" width="84.85" xmlns="http://www.w3.org/2000/svg"><g transform="translate(37.4 42.25)"><use height="38" transform="translate(-11.95 -17.45)" width="32.05" xlink:href="#a"/><use height="38.95" transform="translate(-12.45 -17.95)" width="33.05" xlink:href="#b"/><use height="13.1" transform="translate(-14.2 11.65)" width="35.8" xlink:href="#c"/><use height="15.35" transform="translate(-13.85 3.1)" width="35.5" xlink:href="#d"/><use height="11.5" transform="translate(14.9 -2.05)" width="10.5" xlink:href="#e"/><use height="11.5" transform="matrix(-1 0 0 1 -6.5 -2.05)" width="10.5" xlink:href="#e"/></g><defs><use height="38" width="32.05" xlink:href="#f" id="a"/><use height="38.95" width="33.05" xlink:href="#g" id="b"/><use height="13.1" width="35.8" xlink:href="#h" id="c"/><use height="11.5" width="10.5" xlink:href="#i" id="e"/><g id="h" fill-rule="evenodd"><path d="m16-1.3.05-.05.5-.7.1-.2L15-5.55l-1.25.6-1.4.4-9.4.7-17.7-.75-2.1 3 .4.7 1.1.7.4.8.4.4h-.05l.3.15.1.1.75.4h.65l.35.4 1.55.95.35.2 1.5.3L-5.4 5l.5.05h1.5l3.5.1-.2.4 2.45-.35.6-.45.1-.15h1.9v.1l2.9-.75.9-.65v-.1l.4-.35.8-.1 1.35-.6q1.4-.4 2-1.8l.1-.25.75-.15Q15.25-.5 16-1.3m-.25-4.75L17.2-3.4l.7 1-.35.7Q16.45.1 14.15.8l-.9 1.3q-1.4 1.6-3.65 1.65l-.75.65-1.8.85Q5.2 6 3.25 5.6l-1.55.55q-3 .6-6.05.1Q-7.1 6.4-9 4.5l-.6.05q-2.3-.3-3.75-2.1l-1.1-.35Q-15.5 1.7-15.9.6l-.75-.4-.65-.45q-.55-.55-.6-1.45l2.6-3.95.7-.15 10.2.6 6.6-.1 13.05-1.3.5.55" fill="#0c092b" transform="translate(17.9 6.6)"/><path d="m2.95-3.85 9.4-.7 1.4-.4 1.25-.6 1.65 3.3-.1.2-.5.7-.05.05-.85.65-2.6-1.75.85 2.5-.1.25q-.6 1.4-2 1.8l-.55.2-2.2-3.1.2 3.95v.1l-.9.65-2.9.75v-.1L4.05.35l-1 4.25-.1.15-.6.45-2.45.35.2-.4.85-2.2q1.3-3.35 2-6.8m-6.35 8.9h-1.5L-5.4 5q2.25-2.55 3.95-5.4l.05.95q-.05 2.7-2 4.5M-9.05 3.5l-1.5-.3-.35-.2 4.7-4.15-.6 1.5Q-7.6 2.1-9.05 3.5m-4.3-1.85h-.1l-.85-.5-.3-.15h.05q2.3-1.4 3.85-3.55l-.15.65q-.5 2.2-2.5 3.55m-2-1.85-1.1-.7 2.7-1.95-1.6 2.65" fill="#221595" transform="translate(17.9 6.6)"/><path d="M16-1.3q-.75.8-1.85 1.25L13.4.1l-.85-2.5 2.6 1.75.85-.65m-4.7 3.45-1.35.6-.8.1-.4.35-.2-3.95 2.2 3.1.55-.2M4.95 4.6h-1.9l1-4.25.9 4.25M.1 5.15l-3.5-.1q1.95-1.8 2-4.5l-.05-.95Q-3.15 2.45-5.4 5l-3.65-1.5Q-7.6 2.1-6.8.35l.6-1.5L-10.9 3l-1.55-.95-.35-.4h-.55q2-1.35 2.5-3.55l.15-.65Q-12.25-.4-14.55 1l-.4-.4-.4-.8 1.6-2.65-2.7 1.95-.4-.7 2.1-3 17.7.75q-.7 3.45-2 6.8L.1 5.15m-13.55-3.5-.75-.4-.1-.1.85.5" fill="#024bf4" transform="translate(17.9 6.6)"/></g><g id="d"><path d="M6.3 7.15q8.45-.6 13.5-3.95l.45-.05.3.35q1.7 7-1.6 10.5-1.8 2.35-10.15 3.35-13.7 1.65-19.9-3.4-2.25-1.7-2.25-7.3 0-1.75.55-2.75.2-.45.65-.2Q-3.6 7.85 6.3 7.15" fill="#351e02" fill-rule="evenodd" transform="translate(13.85 -3.1)"/><path d="M4.25 8.45v1.1L4 10.75" fill="none" stroke="#333" stroke-linecap="round" stroke-linejoin="round" stroke-width=".95"/><path d="M6.4 8.1q7.9-.55 13.3-3.7 1.7 5.6-1.5 8.95-2.15 2.8-12.4 3.3-10.95.55-16.1-3.4-1.1-.85-1.7-3.8-.6-3.05.25-4.65 8.7 3.9 18.15 3.3" fill="#f8c606" fill-rule="evenodd" transform="translate(13.85 -3.1)"/><path d="M3.95 9.9q.3 2.65-2.2 6.75-4.05-.15-7.5-1.2Q.55 15 3.95 9.9m8.35-2.65q4.4-1 7.4-2.85 1.7 5.6-1.5 8.95-2.25 2.9-12.9 3.35.95-.9 2.5-5.05 1.55 1.75 2.9 1.5 1.8-.3 3-2.25l-3.75.1q1.25-1.25 2.35-3.75m-19.85 2.9q.55 1.2 2.8 1.7 2.45.5 4.8-.45-.6 1.05-2.15 1.75-1.65.75-2.7.35-1.9-.65-2.75-3.35" fill="#f87006" fill-rule="evenodd" transform="translate(13.85 -3.1)"/><path d="M21.65 10.95q0 1.45-.75 2.2-8.05 5.95-19.95 5.2Q-9.5 17.7-12.8 13.8q-.75-.85-1-2.1-.2-1.2.2-1.2 8.5 6.45 20.75 5.05 11.05-1.3 14.05-6.4.4.55.45 1.8" fill="#020202" fill-rule="evenodd" transform="translate(13.85 -3.1)"/><path d="M5.7 11.2q-.45-1.45-.35-1.95l3.35-.1.6-.15.4.05q-3.65 1.85-4 2.15m-8.5.05q.55-2 1.35-2.15l3.75.3q-3.9 1.85-5.1 1.85" fill="#fff" fill-rule="evenodd" transform="translate(13.85 -3.1)"/><path d="M21.45 4.75q-4.25 3.6-9.9 4.35l-11.1.35q-5.4-.35-10.2-2.35-2-.85-4.1-2.15l.45-1.2L-6.55 5l10.2 1.7q5.3 0 10.25-1.35 3.15-.75 6.2-2.25l1.15.5.2 1.15M4 8.65q5.3.05 10.45-1.3 3.4-1 6.5-2.5l-.25-.9q-4.15 1.55-8.45 2.6l-7.2.75q-5.4.4-10.65-1.05l-6.6-1.9-.4.7 6.8 2.45q4.2 1.2 8.4 1.2L4 8.65" fill="#351e02" fill-rule="evenodd" transform="translate(13.85 -3.1)"/><path d="M5.05 7.3 4 8.65l-1.4.05q-4.2 0-8.4-1.2l-6.8-2.45.4-.7 6.6 1.9Q-.35 7.7 5.05 7.3" fill="#f8f9a8" fill-rule="evenodd" transform="translate(13.85 -3.1)"/><path d="m5.05 7.3 7.2-.75q4.3-1.05 8.45-2.6l.25.9q-3.1 1.5-6.5 2.5Q9.3 8.7 4 8.65L5.05 7.3" fill="#cf7838" fill-rule="evenodd" transform="translate(13.85 -3.1)"/></g><g id="i" fill-rule="evenodd"><path d="M10.5 7.3q-3.35 2.8-7.4 4.25-.65-2.9-3.1-4.9Q1.05 1.9 5.6.05 6.5.6 6.85 1.8l.1.7q2.1 1.6 3.3 4l.25.8m-1.05 0q-.9-2.35-3-3.9l-.75.35Q4.2 4.6 3.4 6L2.15 7.4q.9.8 1.15 1.6l.45 1.45q3-1.2 5.7-3.15m-5.7-3.05 2.35-1.8-.25-1.2L5.5 1l-.95.5q-1.5.65-2.2 2.15L1.15 5.9l1 .25 1.6-1.9" fill="#351e02" transform="translate(0 -.05)"/><path d="M3.4 6q.8-1.4 2.3-2.25l.75-.35q2.1 1.55 3 3.9l-.2-.45-4.05.6L3.4 6M2.35 3.65q.7-1.5 2.2-2.15L5.5 1l.35.25.25 1.2-2.35 1.8-1.4-.6" fill="#f8f9a8" transform="translate(0 -.05)"/><path d="M9.45 7.3q-2.7 1.95-5.7 3.15L3.3 9q-.25-.8-1.15-1.6L3.4 6l1.8 1.45 4.05-.6.2.45m-7.1-3.65 1.4.6-1.6 1.9-1-.25 1.2-2.25" fill="#cf7838" transform="translate(0 -.05)"/></g><path d="M27.35 7.4q2.15 4.15 3.55 8.75 1.45 4.7 1.15 9.5-.35 4.95-4.2 8.1-3.8 3.2-8.75 4.05l-2.6.2q-3.6 0-7.05-1.15-4.65-1.6-7.1-5.5Q-.2 27.4.05 23q.2-4.4 2-9.3Q3.85 8.75 7 5.05 10.1 1.3 14.7.1l1.8-.1q1.9.05 3.7.8 4.75 2.05 7.15 6.6" fill="#fff" fill-rule="evenodd" transform="translate(-.05)" id="f"/><path d="M27.35 7.4Q24.95 2.85 20.2.8 17.55-.3 14.7.1 10.1 1.3 7 5.05q-3.15 3.7-4.95 8.65-1.8 4.9-2 9.3-.25 4.4 2.3 8.35 2.45 3.9 7.1 5.5 4.65 1.55 9.65.95 4.95-.85 8.75-4.05 3.85-3.15 4.2-8.1.3-4.8-1.15-9.5-1.4-4.6-3.55-8.75Z" fill="none" stroke="#333" stroke-linecap="round" stroke-linejoin="round" transform="translate(.45 .5)" id="g"/></defs></svg>

<?xml version="1.0" encoding="UTF-8" standalone="no"?>
<svg xmlns:xlink="http://www.w3.org/1999/xlink" height="82.0px" width="84.85px" xmlns="http://www.w3.org/2000/svg">
  <g transform="matrix(1.0, 0.0, 0.0, 1.0, 37.4, 42.25)">
    <use height="38.0" transform="matrix(1.0, 0.0, 0.0, 1.0, -11.95, -17.45)" width="32.05" xlink:href="#sprite0"/>
    <use height="38.95" transform="matrix(1.0, 0.0, 0.0, 1.0, -12.45, -17.95)" width="33.05" xlink:href="#sprite1"/>
    <use height="13.1" transform="matrix(1.0, 0.0, 0.0, 1.0, -14.2, 11.65)" width="35.8" xlink:href="#sprite2"/>
    <use height="15.35" transform="matrix(1.0, 0.0, 0.0, 1.0, -13.85, 3.1)" width="35.5" xlink:href="#shape3"/>
    <use height="11.5" transform="matrix(1.0, 0.0, 0.0, 1.0, 14.9, -2.05)" width="10.5" xlink:href="#sprite3"/>
    <use height="11.5" transform="matrix(-1.0, 0.0, 0.0, 1.0, -6.5, -2.05)" width="10.5" xlink:href="#sprite3"/>
  </g>
  <defs>
    <g id="sprite0" transform="matrix(1.0, 0.0, 0.0, 1.0, -0.05, 0.0)">
      <use height="38.0" transform="matrix(1.0, 0.0, 0.0, 1.0, 0.05, 0.0)" width="32.05" xlink:href="#shape0"/>
    </g>
    <g id="shape0" transform="matrix(1.0, 0.0, 0.0, 1.0, -0.05, 0.0)">
      <path d="M27.35 7.4 Q29.5 11.55 30.9 16.15 32.35 20.85 32.05 25.65 31.7 30.6 27.85 33.75 24.05 36.95 19.1 37.8 L16.5 38.0 Q12.9 38.0 9.45 36.85 4.8 35.25 2.35 31.35 -0.2 27.4 0.05 23.0 0.25 18.6 2.05 13.7 3.85 8.75 7.0 5.05 10.1 1.3 14.7 0.1 L16.5 0.0 Q18.4 0.05 20.2 0.8 24.95 2.85 27.35 7.4" fill="#ffffff" fill-rule="evenodd" stroke="none"/>
    </g>
    <g id="sprite1" transform="matrix(1.0, 0.0, 0.0, 1.0, 0.45, 0.5)">
      <use height="38.95" transform="matrix(1.0, 0.0, 0.0, 1.0, -0.45, -0.5)" width="33.05" xlink:href="#shape1"/>
    </g>
    <g id="shape1" transform="matrix(1.0, 0.0, 0.0, 1.0, 0.45, 0.5)">
      <path d="M27.35 7.4 Q24.95 2.85 20.2 0.8 17.55 -0.3 14.7 0.1 10.1 1.3 7.0 5.05 3.85 8.75 2.05 13.7 0.25 18.6 0.05 23.0 -0.2 27.4 2.35 31.35 4.8 35.25 9.45 36.85 14.1 38.4 19.1 37.8 24.05 36.95 27.85 33.75 31.7 30.6 32.05 25.65 32.35 20.85 30.9 16.15 29.5 11.55 27.35 7.4 Z" fill="none" stroke="#333333" stroke-linecap="round" stroke-linejoin="round" stroke-width="1.0"/>
    </g>
    <g id="sprite2" transform="matrix(1.0, 0.0, 0.0, 1.0, 17.9, 6.6)">
      <use height="13.1" transform="matrix(1.0, 0.0, 0.0, 1.0, -17.9, -6.6)" width="35.8" xlink:href="#shape2"/>
    </g>
    <g id="shape2" transform="matrix(1.0, 0.0, 0.0, 1.0, 17.9, 6.6)">
      <path d="M16.0 -1.3 L16.05 -1.35 16.55 -2.05 16.65 -2.25 15.0 -5.55 13.75 -4.95 12.35 -4.55 2.95 -3.85 -14.75 -4.6 -16.85 -1.6 -16.45 -0.9 -15.35 -0.2 -14.95 0.6 -14.55 1.0 -14.6 1.0 -14.3 1.15 -14.2 1.25 -13.45 1.65 -13.35 1.65 -12.8 1.65 -12.45 2.05 -10.9 3.0 -10.55 3.2 -9.05 3.5 -5.4 5.0 -4.9 5.05 -3.4 5.05 0.1 5.15 -0.1 5.55 2.35 5.2 2.95 4.75 3.05 4.6 4.95 4.6 4.95 4.7 7.85 3.95 8.75 3.3 8.75 3.2 9.15 2.85 9.95 2.75 11.3 2.15 Q12.7 1.75 13.3 0.35 L13.4 0.1 14.15 -0.05 Q15.25 -0.5 16.0 -1.3 M15.75 -6.05 L17.2 -3.4 17.9 -2.4 17.55 -1.7 Q16.45 0.1 14.15 0.8 L13.25 2.1 Q11.85 3.7 9.6 3.75 L8.85 4.4 7.05 5.25 Q5.2 6.0 3.25 5.6 L1.7 6.15 Q-1.3 6.75 -4.35 6.25 -7.1 6.4 -9.0 4.5 L-9.6 4.55 Q-11.9 4.25 -13.35 2.45 L-14.45 2.1 Q-15.5 1.7 -15.9 0.6 L-16.65 0.2 -17.3 -0.25 Q-17.85 -0.8 -17.9 -1.7 L-15.3 -5.65 -14.6 -5.8 -4.4 -5.2 2.2 -5.3 15.25 -6.6 15.75 -6.05" fill="#0c092b" fill-rule="evenodd" stroke="none"/>
      <path d="M2.95 -3.85 L12.35 -4.55 13.75 -4.95 15.0 -5.55 16.65 -2.25 16.55 -2.05 16.05 -1.35 16.0 -1.3 15.15 -0.65 12.55 -2.4 13.4 0.1 13.3 0.35 Q12.7 1.75 11.3 2.15 L10.75 2.35 8.55 -0.75 8.75 3.2 8.75 3.3 7.85 3.95 4.95 4.7 4.95 4.6 4.05 0.35 3.05 4.6 2.95 4.75 2.35 5.2 -0.1 5.55 0.1 5.15 0.95 2.95 Q2.25 -0.4 2.95 -3.85 M-3.4 5.05 L-4.9 5.05 -5.4 5.0 Q-3.15 2.45 -1.45 -0.4 L-1.4 0.55 Q-1.45 3.25 -3.4 5.05 M-9.05 3.5 L-10.55 3.2 -10.9 3.0 -6.2 -1.15 -6.8 0.35 Q-7.6 2.1 -9.05 3.5 M-13.35 1.65 L-13.45 1.65 -14.3 1.15 -14.6 1.0 -14.55 1.0 Q-12.25 -0.4 -10.7 -2.55 L-10.85 -1.9 Q-11.35 0.3 -13.35 1.65 M-15.35 -0.2 L-16.45 -0.9 -13.75 -2.85 -15.35 -0.2" fill="#221595" fill-rule="evenodd" stroke="none"/>
      <path d="M16.0 -1.3 Q15.25 -0.5 14.15 -0.05 L13.4 0.1 12.55 -2.4 15.15 -0.65 16.0 -1.3 M11.3 2.15 L9.95 2.75 9.15 2.85 8.75 3.2 8.55 -0.75 10.75 2.35 11.3 2.15 M4.95 4.6 L3.05 4.6 4.05 0.35 4.95 4.6 M0.1 5.15 L-3.4 5.05 Q-1.45 3.25 -1.4 0.55 L-1.45 -0.4 Q-3.15 2.45 -5.4 5.0 L-9.05 3.5 Q-7.6 2.1 -6.8 0.35 L-6.2 -1.15 -10.9 3.0 -12.45 2.05 -12.8 1.65 -13.35 1.65 Q-11.35 0.3 -10.85 -1.9 L-10.7 -2.55 Q-12.25 -0.4 -14.55 1.0 L-14.95 0.6 -15.35 -0.2 -13.75 -2.85 -16.45 -0.9 -16.85 -1.6 -14.75 -4.6 2.95 -3.85 Q2.25 -0.4 0.95 2.95 L0.1 5.15 M-13.45 1.65 L-14.2 1.25 -14.3 1.15 -13.45 1.65" fill="#024bf4" fill-rule="evenodd" stroke="none"/>
    </g>
    <g id="shape3" transform="matrix(1.0, 0.0, 0.0, 1.0, 13.85, -3.1)">
      <path d="M6.3 7.15 Q14.75 6.55 19.8 3.2 L20.25 3.15 20.55 3.5 Q22.25 10.5 18.95 14.0 17.15 16.35 8.8 17.35 -4.9 19.0 -11.1 13.95 -13.35 12.25 -13.35 6.65 -13.35 4.9 -12.8 3.9 -12.6 3.45 -12.15 3.7 -3.6 7.85 6.3 7.15" fill="#351e02" fill-rule="evenodd" stroke="none"/>
      <path d="M-9.6 11.55 L-9.6 12.65 -9.85 13.85" fill="none" stroke="#333333" stroke-linecap="round" stroke-linejoin="round" stroke-width="0.9500000000000001"/>
      <path d="M6.4 8.1 Q14.3 7.55 19.7 4.4 21.4 10.0 18.2 13.35 16.05 16.15 5.8 16.65 -5.15 17.2 -10.3 13.25 -11.4 12.4 -12.0 9.45 -12.6 6.4 -11.75 4.8 -3.05 8.7 6.4 8.1" fill="#f8c606" fill-rule="evenodd" stroke="none"/>
      <path d="M3.95 9.9 Q4.25 12.55 1.75 16.65 -2.3 16.5 -5.75 15.45 0.55 15.0 3.95 9.9" fill="#f87006" fill-rule="evenodd" stroke="none"/>
      <path d="M12.3 7.25 Q16.7 6.25 19.7 4.4 21.4 10.0 18.2 13.35 15.95 16.25 5.3 16.7 6.25 15.8 7.8 11.65 9.35 13.4 10.7 13.15 12.5 12.85 13.7 10.9 L9.95 11.0 Q11.2 9.75 12.3 7.25" fill="#f87006" fill-rule="evenodd" stroke="none"/>
      <path d="M-7.55 10.15 Q-7.0 11.35 -4.75 11.85 -2.3 12.35 0.05 11.4 -0.55 12.45 -2.1 13.15 -3.75 13.9 -4.8 13.5 -6.7 12.85 -7.55 10.15" fill="#f87006" fill-rule="evenodd" stroke="none"/>
      <path d="M21.65 10.95 Q21.65 12.4 20.9 13.15 12.85 19.1 0.95 18.35 -9.5 17.7 -12.8 13.8 -13.55 12.95 -13.8 11.7 -14.0 10.5 -13.6 10.5 -5.1 16.95 7.15 15.55 18.2 14.25 21.2 9.15 21.6 9.7 21.65 10.95" fill="#020202" fill-rule="evenodd" stroke="none"/>
      <path d="M5.7 11.2 Q5.25 9.75 5.35 9.25 L8.7 9.15 9.3 9.0 9.7 9.05 Q6.05 10.9 5.7 11.2" fill="#ffffff" fill-rule="evenodd" stroke="none"/>
      <path d="M-2.8 11.25 Q-2.25 9.25 -1.45 9.1 L2.3 9.4 Q-1.6 11.25 -2.8 11.25" fill="#ffffff" fill-rule="evenodd" stroke="none"/>
      <path d="M21.45 4.75 Q17.2 8.35 11.55 9.1 L0.45 9.45 Q-4.95 9.1 -9.75 7.1 -11.75 6.25 -13.85 4.95 L-13.4 3.75 -6.55 5.0 3.65 6.7 Q8.95 6.7 13.9 5.35 17.05 4.6 20.1 3.1 L21.25 3.6 21.45 4.75 M4.0 8.65 Q9.3 8.7 14.45 7.35 17.85 6.35 20.95 4.85 L20.7 3.95 Q16.55 5.5 12.25 6.55 L5.05 7.3 Q-0.35 7.7 -5.6 6.25 L-12.2 4.35 -12.6 5.05 -5.8 7.5 Q-1.6 8.7 2.6 8.7 L4.0 8.65" fill="#351e02" fill-rule="evenodd" stroke="none"/>
      <path d="M5.05 7.3 L4.0 8.65 2.6 8.7 Q-1.6 8.7 -5.8 7.5 L-12.6 5.05 -12.2 4.35 -5.6 6.25 Q-0.35 7.7 5.05 7.3" fill="#f8f9a8" fill-rule="evenodd" stroke="none"/>
      <path d="M5.05 7.3 L12.25 6.55 Q16.55 5.5 20.7 3.95 L20.95 4.85 Q17.85 6.35 14.45 7.35 9.3 8.7 4.0 8.65 L5.05 7.3" fill="#cf7838" fill-rule="evenodd" stroke="none"/>
    </g>
    <g id="sprite3" transform="matrix(1.0, 0.0, 0.0, 1.0, 0.0, -0.05)">
      <use height="11.5" transform="matrix(1.0, 0.0, 0.0, 1.0, 0.0, 0.05)" width="10.5" xlink:href="#shape4"/>
    </g>
    <g id="shape4" transform="matrix(1.0, 0.0, 0.0, 1.0, 0.0, -0.05)">
      <path d="M10.5 7.3 Q7.15 10.1 3.1 11.55 2.45 8.65 0.0 6.65 1.05 1.9 5.6 0.05 6.5 0.6 6.85 1.8 L6.95 2.5 Q9.05 4.1 10.25 6.5 L10.5 7.3 M9.45 7.3 Q8.55 4.95 6.45 3.4 L5.7 3.75 Q4.2 4.6 3.4 6.0 L2.15 7.4 Q3.05 8.2 3.3 9.0 L3.75 10.45 Q6.75 9.25 9.45 7.3 M3.75 4.25 L6.1 2.45 5.85 1.25 5.5 1.0 4.55 1.5 Q3.05 2.15 2.35 3.65 L1.15 5.9 2.15 6.15 3.75 4.25" fill="#351e02" fill-rule="evenodd" stroke="none"/>
      <path d="M3.4 6.0 Q4.2 4.6 5.7 3.75 L6.45 3.4 Q8.55 4.95 9.45 7.3 L9.25 6.85 5.2 7.45 3.4 6.0 M2.35 3.65 Q3.05 2.15 4.55 1.5 L5.5 1.0 5.85 1.25 6.1 2.45 3.75 4.25 2.35 3.65" fill="#f8f9a8" fill-rule="evenodd" stroke="none"/>
      <path d="M9.45 7.3 Q6.75 9.25 3.75 10.45 L3.3 9.0 Q3.05 8.2 2.15 7.4 L3.4 6.0 5.2 7.45 9.25 6.85 9.45 7.3 M2.35 3.65 L3.75 4.25 2.15 6.15 1.15 5.9 2.35 3.65" fill="#cf7838" fill-rule="evenodd" stroke="none"/>
    </g>
  </defs>
</svg>
